X:1
T:Harbour of Ballyshone
T:Cuan Bhaile Seóin
M:6/8
L:1/8
R:Air
N:"Slowly"
B:Joyce - Old Irish Folk Music and Songs, No. 452 (1909)
Z:AK/Fiddler's Companion
K:C
D/E/|FAF EGE/C/|EDD DEG|A/B/c/B/A/G/ EG/E/D/E/|C2 C C2:||
E/F/|GAB c2 B/c/|d2 c/B/ ABG|A/B/c/B/A/G/ EG/E/D/E/|C>DE/C/ DCC|
c>de/c/ A>GE/C/|EDD DEG|A/B/c/B/A/G/ EG/E/D/E/|C2 C C2||

